flaticon/seo-and-analytics/analytics-13.svg

<svg xmlns="http://www.w3.org/2000/svg" width="32" height="32" viewBox="0 0 24 24">
    <path d="M 23.601562 17.800781 L 23.199219 17.800781 L 23.199219 4.601562 C 23.199219 3.921875 22.679688 3.398438 22 3.398438 L 2 3.398438 C 1.320312 3.398438 0.800781 3.921875 0.800781 4.601562 L 0.800781 17.800781 L 0.398438 17.800781 C 0.160156 17.800781 0 17.960938 0 18.199219 L 0 19.398438 C 0 20.078125 0.519531 20.601562 1.199219 20.601562 L 22.800781 20.601562 C 23.480469 20.601562 24 20.078125 24 19.398438 L 24 18.199219 C 24 17.960938 23.839844 17.800781 23.601562 17.800781 Z M 1.601562 4.601562 C 1.601562 4.359375 1.761719 4.199219 2 4.199219 L 22 4.199219 C 22.238281 4.199219 22.398438 4.359375 22.398438 4.601562 L 22.398438 17.800781 L 15.199219 17.800781 C 14.960938 17.800781 14.800781 17.960938 14.800781 18.199219 L 14.800781 18.601562 L 9.199219 18.601562 L 9.199219 18.199219 C 9.199219 17.960938 9.039062 17.800781 8.800781 17.800781 L 1.601562 17.800781 Z M 23.199219 19.398438 C 23.199219 19.640625 23.039062 19.800781 22.800781 19.800781 L 1.199219 19.800781 C 0.960938 19.800781 0.800781 19.640625 0.800781 19.398438 L 0.800781 18.601562 L 8.398438 18.601562 L 8.398438 19 C 8.398438 19.238281 8.558594 19.398438 8.800781 19.398438 L 15.199219 19.398438 C 15.441406 19.398438 15.601562 19.238281 15.601562 19 L 15.601562 18.601562 L 23.199219 18.601562 Z M 23.199219 19.398438"/>
    <path d="M 13.121094 14.960938 C 13.320312 14.878906 13.398438 14.640625 13.320312 14.441406 L 11.601562 10.921875 L 11.601562 7 C 11.601562 6.761719 11.441406 6.601562 11.199219 6.601562 C 8.761719 6.601562 6.800781 8.558594 6.800781 11 C 6.800781 13.441406 8.761719 15.398438 11.199219 15.398438 C 11.878906 15.398438 12.519531 15.238281 13.121094 14.960938 Z M 7.601562 11 C 7.601562 9.160156 9 7.640625 10.800781 7.441406 L 10.800781 11 C 10.800781 11.078125 10.800781 11.121094 10.839844 11.160156 L 12.398438 14.398438 C 12 14.519531 11.601562 14.601562 11.199219 14.601562 C 9.199219 14.601562 7.601562 13 7.601562 11 Z M 7.601562 11"/>
    <path d="M14.039062 13.960938C14.121094 14.121094 14.238281 14.199219 14.398438 14.199219L14.519531 14.199219C14.601562 14.199219 14.640625 14.199219 14.71875 14.160156 16.238281 13.398438 17.199219 11.921875 17.199219 10.199219 17.199219 7.761719 15.238281 5.800781 12.800781 5.800781 12.558594 5.800781 12.398438 5.960938 12.398438 6.199219L12.398438 10.601562C12.398438 10.679688 12.398438 10.71875 12.441406 10.761719zM13.199219 6.640625C15 6.839844 16.398438 8.359375 16.398438 10.199219 16.398438 11.519531 15.71875 12.679688 14.601562 13.320312L13.199219 10.519531zM4.800781 6.199219L6.800781 6.199219C7.039062 6.199219 7.199219 6.039062 7.199219 5.800781 7.199219 5.558594 7.039062 5.398438 6.800781 5.398438L4.800781 5.398438C4.558594 5.398438 4.398438 5.558594 4.398438 5.800781 4.398438 6.039062 4.558594 6.199219 4.800781 6.199219zM2.800781 6.199219L3.199219 6.199219C3.441406 6.199219 3.601562 6.039062 3.601562 5.800781 3.601562 5.558594 3.441406 5.398438 3.199219 5.398438L2.800781 5.398438C2.558594 5.398438 2.398438 5.558594 2.398438 5.800781 2.398438 6.039062 2.558594 6.199219 2.800781 6.199219zM2.800781 7.800781L4.398438 7.800781C4.640625 7.800781 4.800781 7.640625 4.800781 7.398438 4.800781 7.160156 4.640625 7 4.398438 7L2.800781 7C2.558594 7 2.398438 7.160156 2.398438 7.398438 2.398438 7.640625 2.558594 7.800781 2.800781 7.800781zM7.199219 7.398438C7.199219 7.160156 7.039062 7 6.800781 7L6 7C5.761719 7 5.601562 7.160156 5.601562 7.398438 5.601562 7.640625 5.761719 7.800781 6 7.800781L6.800781 7.800781C7.039062 7.800781 7.199219 7.640625 7.199219 7.398438zM21.199219 14.199219L19.199219 14.199219C18.960938 14.199219 18.800781 14.359375 18.800781 14.601562 18.800781 14.839844 18.960938 15 19.199219 15L21.199219 15C21.441406 15 21.601562 14.839844 21.601562 14.601562 21.601562 14.359375 21.441406 14.199219 21.199219 14.199219zM16.800781 14.601562C16.800781 14.839844 16.960938 15 17.199219 15L17.601562 15C17.839844 15 18 14.839844 18 14.601562 18 14.359375 17.839844 14.199219 17.601562 14.199219L17.199219 14.199219C16.960938 14.199219 16.800781 14.359375 16.800781 14.601562zM18.800781 15.800781L17.199219 15.800781C16.960938 15.800781 16.800781 15.960938 16.800781 16.199219 16.800781 16.441406 16.960938 16.601562 17.199219 16.601562L18.800781 16.601562C19.039062 16.601562 19.199219 16.441406 19.199219 16.199219 19.199219 15.960938 19.039062 15.800781 18.800781 15.800781zM21.199219 15.800781L20.398438 15.800781C20.160156 15.800781 20 15.960938 20 16.199219 20 16.441406 20.160156 16.601562 20.398438 16.601562L21.199219 16.601562C21.441406 16.601562 21.601562 16.441406 21.601562 16.199219 21.601562 15.960938 21.441406 15.800781 21.199219 15.800781zM18.800781 7.398438L19.601562 7.398438 19.601562 8.199219C19.601562 8.441406 19.761719 8.601562 20 8.601562 20.238281 8.601562 20.398438 8.441406 20.398438 8.199219L20.398438 7.398438 21.199219 7.398438C21.441406 7.398438 21.601562 7.238281 21.601562 7 21.601562 6.761719 21.441406 6.601562 21.199219 6.601562L20.398438 6.601562 20.398438 5.800781C20.398438 5.558594 20.238281 5.398438 20 5.398438 19.761719 5.398438 19.601562 5.558594 19.601562 5.800781L19.601562 6.601562 18.800781 6.601562C18.558594 6.601562 18.398438 6.761719 18.398438 7 18.398438 7.238281 18.558594 7.398438 18.800781 7.398438zM5.480469 13.519531C5.320312 13.359375 5.078125 13.359375 4.921875 13.519531L4 14.441406 3.078125 13.519531C2.921875 13.359375 2.679688 13.359375 2.519531 13.519531 2.359375 13.679688 2.359375 13.921875 2.519531 14.078125L3.441406 15 2.519531 15.921875C2.359375 16.078125 2.359375 16.320312 2.519531 16.480469 2.601562 16.558594 2.679688 16.601562 2.800781 16.601562 2.921875 16.601562 3 16.558594 3.078125 16.480469L4 15.558594 4.921875 16.480469C5 16.558594 5.078125 16.601562 5.199219 16.601562 5.320312 16.601562 5.398438 16.558594 5.480469 16.480469 5.640625 16.320312 5.640625 16.078125 5.480469 15.921875L4.558594 15 5.480469 14.078125C5.640625 13.921875 5.640625 13.679688 5.480469 13.519531zM5.480469 13.519531"/>
</svg>

<svg xmlns="http://www.w3.org/2000/svg" width="32" height="32" viewBox="0 0 24 24">
    <path d="M23.602 17.8h-.403V4.603c0-.68-.52-1.204-1.199-1.204H2c-.68 0-1.2.524-1.2 1.204V17.8H.399c-.238 0-.398.16-.398.398v1.2c0 .68.52 1.203 1.2 1.203h21.6c.68 0 1.2-.524 1.2-1.204V18.2c0-.238-.16-.398-.398-.398zm-22-13.198c0-.243.16-.403.398-.403h20c.238 0 .398.16.398.403V17.8H15.2c-.238 0-.398.16-.398.398v.403H9.199v-.403c0-.238-.16-.398-.398-.398H1.6zm21.597 14.796c0 .243-.16.403-.398.403H1.199c-.238 0-.398-.16-.398-.403v-.796h7.597V19c0 .238.16.398.403.398h6.398c.242 0 .403-.16.403-.398v-.398h7.597zm0 0"/>
    <path d="M13.121 14.96c.2-.081.277-.32.2-.519l-1.72-3.52V7c0-.238-.16-.398-.402-.398A4.385 4.385 0 0 0 6.801 11a4.385 4.385 0 0 0 4.398 4.398c.68 0 1.32-.16 1.922-.437zM7.601 11a3.59 3.59 0 0 1 3.2-3.559V11c0 .078 0 .121.039.16l1.558 3.238a4.13 4.13 0 0 1-1.199.204c-2 0-3.597-1.602-3.597-3.602zm0 0"/>
    <path d="M14.04 13.96c.081.161.198.24.358.24h.122c.082 0 .12 0 .199-.04 1.52-.762 2.48-2.238 2.48-3.96a4.388 4.388 0 0 0-4.398-4.4c-.242 0-.403.16-.403.4v4.402c0 .078 0 .117.043.16zm-.84-7.32c1.8.2 3.198 1.72 3.198 3.56 0 1.32-.68 2.48-1.796 3.12l-1.403-2.8zm0 0M4.8 6.2h2c.24 0 .4-.16.4-.4 0-.241-.16-.402-.4-.402h-2c-.241 0-.402.16-.402.403 0 .238.16.398.403.398zm0 0M2.8 6.2h.4c.241 0 .402-.16.402-.4 0-.241-.16-.402-.403-.402h-.398c-.242 0-.403.16-.403.403 0 .238.16.398.403.398zm0 0M2.8 7.8h1.598c.243 0 .403-.16.403-.402C4.8 7.16 4.64 7 4.398 7H2.801c-.242 0-.403.16-.403.398 0 .243.16.403.403.403zm0 0M7.2 7.398C7.2 7.16 7.04 7 6.8 7H6c-.238 0-.398.16-.398.398 0 .243.16.403.398.403h.8c.24 0 .4-.16.4-.403zm0 0M21.2 14.2h-2c-.24 0-.4.16-.4.402 0 .238.16.398.4.398h2c.241 0 .402-.16.402-.398 0-.243-.16-.403-.403-.403zm0 0M16.8 14.602c0 .238.16.398.4.398h.402c.238 0 .398-.16.398-.398 0-.243-.16-.403-.398-.403h-.403c-.238 0-.398.16-.398.403zm0 0M18.8 15.8h-1.6c-.24 0-.4.16-.4.4 0 .241.16.402.4.402h1.6c.24 0 .4-.16.4-.403 0-.238-.16-.398-.4-.398zm0 0M21.2 15.8h-.802c-.238 0-.398.16-.398.4 0 .241.16.402.398.402h.801c.242 0 .403-.16.403-.403 0-.238-.16-.398-.403-.398zm0 0M18.8 7.398h.802V8.2c0 .242.16.403.398.403.238 0 .398-.16.398-.403v-.8h.801c.242 0 .403-.16.403-.399 0-.238-.16-.398-.403-.398h-.8V5.8c0-.242-.16-.403-.399-.403-.238 0-.398.16-.398.403v.8H18.8c-.242 0-.403.16-.403.399 0 .238.16.398.403.398zm0 0M5.48 13.52a.385.385 0 0 0-.558 0L4 14.44l-.922-.921a.385.385 0 0 0-.558 0 .385.385 0 0 0 0 .558L3.44 15l-.921.922a.385.385 0 0 0 0 .558c.082.079.16.122.28.122a.36.36 0 0 0 .278-.122L4 15.56l.922.921a.36.36 0 0 0 .277.122c.121 0 .2-.043.281-.122a.385.385 0 0 0 0-.558L4.56 15l.921-.922a.385.385 0 0 0 0-.558zm0 0"/>
</svg>
